X:1
T:Les gars de Locmin
C:Trad., abc file by Bernard Loffet
L:1/8
Q:440
M:6/8
K:C
[e2A,2]e[e2A,2]e|[d3D,3][d3D,3]|[c2F,2]B[c2F,2]d|[e3E,3]E,3|[e2A,2]e[e2A,2]e|[d3D,3][d3D,3]|[c2F,2]B[c2F,2]d|[e3E,3]E,3|[A2A,2]A[A2A,2]A|[d3D,3][d3D,3]| \
[d2D,2]e[d2D,2]c|[B3E,3]E,3|[A2A,2]A[A2A,2]A|[d3D,3][d3D,3]|[d2D,2]e[d2D,2]c|[B3E,3]E,3|[A3A,3][A3A,3]|[c3A,3]A,2B|[A2F,2]G[A2F,2]B|[c3A,3]A,2e|[e2C,2]e[e2C,2]f| \
[e3C,3][e3C,3]|[d2D,2]e[d2D,2]c|[B3E,3][e3E,3]|[A3A,3][A3A,3]|[c3A,3]A,2B|[A2F,2]G[A2F,2]B|[c3A,3]A,2e|[e2C,2]e[e2C,2]f|[e2C,2]d[c2C,2]B|[c3E,3][B3E,3]| \
[A3A,3]A,3| \
Z:Created with TablEdit http://www.tabledit.com/ by Bernard Loffet
